<?xml version="1.0" encoding="UTF-8"?>
<map version="1.10" tiledversion="1.12.2" orientation="orthogonal" renderorder="right-down" width="20" height="15" tilewidth="16" tileheight="16" infinite="0" nextlayerid="4" nextobjectid="1">
 <editorsettings>
  <export target="../testmap.lua" format="lua"/>
 </editorsettings>
 <tileset firstgid="1" name="collider" tilewidth="16" tileheight="16" tilecount="1" columns="1">
  <image source="../textures/collider.png" width="16" height="16"/>
 </tileset>
 <tileset firstgid="2" name="fence" tilewidth="16" tileheight="16" tilecount="96" columns="8">
  <image source="../textures/fence.png" width="128" height="192"/>
 </tileset>
 <tileset firstgid="98" name="floor" tilewidth="16" tileheight="16" tilecount="819" columns="21">
  <image source="../textures/floor.png" width="336" height="624"/>
 </tileset>
 <tileset firstgid="917" name="ground" tilewidth="16" tileheight="16" tilecount="56" columns="8">
  <image source="../textures/ground.png" width="128" height="112"/>
 </tileset>
 <layer id="1" name="0 - FLOOR" width="20" height="15">
  <data encoding="csv">
231,232,232,232,232,232,232,232,232,232,232,232,232,232,232,232,232,232,232,233,
252,253,253,253,253,253,253,253,253,253,253,253,253,253,253,253,253,253,253,254,
252,253,253,253,253,253,253,253,253,253,253,253,253,253,253,253,253,253,253,254,
252,253,253,253,253,253,253,253,253,253,253,253,253,253,253,253,253,253,253,254,
252,253,253,253,253,253,253,253,253,253,253,253,253,253,253,253,253,253,253,254,
252,253,253,253,253,253,253,253,253,253,253,253,253,253,253,253,253,253,253,254,
252,253,253,253,253,253,253,253,253,253,253,253,253,253,253,253,253,253,253,254,
252,253,253,253,253,253,253,253,253,253,253,253,253,253,253,253,253,253,253,254,
252,253,253,253,253,253,253,253,253,253,253,253,253,253,253,253,253,253,253,254,
252,253,253,253,253,253,253,253,253,253,253,253,253,253,253,253,253,253,253,254,
252,253,253,253,253,253,253,253,253,253,253,253,253,253,253,253,253,253,253,254,
252,253,253,253,253,253,253,253,253,253,253,253,253,253,253,253,253,253,253,254,
252,253,253,253,253,253,253,253,253,253,253,253,253,253,253,253,253,253,253,254,
252,253,253,253,253,253,253,253,253,253,253,253,253,253,253,253,253,253,253,254,
273,274,274,274,274,274,274,274,274,274,274,274,274,274,274,274,274,274,274,275
</data>
 </layer>
 <layer id="2" name="1 - GROUND" width="20" height="15">
  <data encoding="csv">
0,0,0,0,0,0,0,0,0,0,0,0,0,0,0,0,0,0,0,0,
0,0,0,0,0,0,0,0,0,0,0,0,0,0,0,0,0,0,0,0,
0,0,0,0,0,0,0,0,0,0,0,0,0,0,0,0,0,0,0,0,
0,0,0,0,0,0,0,0,0,0,0,0,0,0,0,0,0,0,0,0,
0,0,0,0,0,0,26,27,27,27,27,27,27,28,0,0,0,0,0,0,
0,0,0,952,0,0,34,0,950,950,950,950,0,34,0,0,952,0,0,0,
0,0,0,0,0,0,34,0,950,950,950,950,0,34,0,0,0,0,0,0,
0,0,0,0,0,0,42,27,27,0,0,27,27,44,0,0,0,0,0,0,
0,0,0,0,0,0,0,0,929,929,0,0,0,0,0,0,0,0,0,0,
0,0,0,0,0,0,0,929,929,929,0,929,0,0,0,0,0,0,0,0,
0,0,0,0,0,952,0,0,929,0,929,0,0,0,952,0,0,0,0,0,
0,0,0,0,0,0,0,0,0,929,929,0,0,0,0,0,0,0,0,0,
0,0,0,0,0,0,0,0,929,0,0,929,0,0,0,0,0,0,0,0,
0,0,0,0,0,0,0,0,0,929,929,929,0,0,0,0,0,0,0,0,
0,0,0,0,0,0,0,0,929,0,0,0,0,0,0,0,0,0,0,0
</data>
 </layer>
 <layer id="3" name="2 - COLLIDER" width="20" height="15" visible="0">
  <data encoding="csv">
0,0,0,0,0,0,0,0,0,0,0,0,0,0,0,0,0,0,0,0,
0,0,0,0,0,0,0,0,0,0,0,0,0,0,0,0,0,0,0,0,
0,0,0,0,0,0,0,0,0,0,0,0,0,0,0,0,0,0,0,0,
0,0,0,0,0,0,0,0,0,0,0,0,0,0,0,0,0,0,0,0,
0,0,0,0,0,0,1,1,1,1,1,1,1,1,0,0,0,0,0,0,
0,0,0,1,0,0,1,0,0,0,0,0,0,1,0,0,1,0,0,0,
0,0,0,0,0,0,1,0,0,0,0,0,0,1,0,0,0,0,0,0,
0,0,0,0,0,0,1,1,1,0,0,1,1,1,0,0,0,0,0,0,
0,0,0,0,0,0,0,0,0,0,0,0,0,0,0,0,0,0,0,0,
0,0,0,0,0,0,0,0,0,0,0,0,0,0,0,0,0,0,0,0,
0,0,0,0,0,1,0,0,0,0,0,0,0,0,1,0,0,0,0,0,
0,0,0,0,0,0,0,0,0,0,0,0,0,0,0,0,0,0,0,0,
0,0,0,0,0,0,0,0,0,0,0,0,0,0,0,0,0,0,0,0,
0,0,0,0,0,0,0,0,0,0,0,0,0,0,0,0,0,0,0,0,
0,0,0,0,0,0,0,0,0,0,0,0,0,0,0,0,0,0,0,0
</data>
 </layer>
</map>
